X:60
T:la Bell Catherine
A:Wyresdale, Lancashire
B:H.S.J. Jackson, 1823
L:1/8
M:none
O:England
Z:Richard Robinson 
%%TUNEURL: http://www.leeds.ac.uk/music/Info/RRTuneBk/gettune/00000dfc.html
%%ID:00000dfc
K:C
d |\
g2 ag/a/ | b>g   g>f   | e2 abag         | (fd) d2 | \
g2 ag/a/ | (bg)  gf    | fg g/f/e/d/     | g2 z ::
Bd dc    | Bd    dc    | Bd gb           | a/g/f/e/ dc | \
Bd de/f/ | gb/g/ fa/g/ | ga/b/ c'/b/a/g/ | Hd'2 a//g//f//e// d ::
